X:46
T:B046-  Buff Coat
Q:1/4=120
L:1/4
M:C|
K:Dm
d2F2|E2cB3/4c/4|d3/2A/2F3/2E/2|FD3:|\
d3/4c/4dB3/4c/4d|e3/4d/4ec3/4B/4A|\
d3/4c/4de3/4d/4e|^f2a2|\
f3/4e/4dB3/4c/4d|e3/4d/4cAB3/4c/4|\
d3/2A/2F3/2D/2|FD3|]

